X:894
T:Hills of Glenorchy, The
S:Forgotten
Z:Nigel Gatherer
M:6/8
L:1/8
K:Edor
d/c/ | B2E E>FE | BAB  d2B | A2D  D>ED | FDF  Adc |
       B2E E>FE | BAB  e2e | dBd  AFD  | E>FE E2 :|
B    | e>fe edB | e>fg gfe | d>ed dAF  | d>cd fed |
       e>fe edB | e>fg e2e | dBd  AFD  | E>FE E2 :|
